material/.icons/material/format-wrap-tight.svg

<svg xmlns="http://www.w3.org/2000/svg" viewBox="0 0 24 24"><path d="M12 7l5 10H7l5-10M3 3h18v2H3V3m0 4h6v2H3V7m18 0v2h-6V7h6M3 11h4v2H3v-2m18 0v2h-4v-2h4M3 15h3v2H3v-2m18 0v2h-3v-2h3M3 19h18v2H3v-2z"/></svg>

<?xml version="1.0" encoding="UTF-8"?><!DOCTYPE svg PUBLIC "-//W3C//DTD SVG 1.1//EN" "http://www.w3.org/Graphics/SVG/1.1/DTD/svg11.dtd"><svg xmlns="http://www.w3.org/2000/svg" xmlns:xlink="http://www.w3.org/1999/xlink" version="1.1" id="mdi-format-wrap-tight" width="24" height="24" viewBox="0 0 24 24"><path d="M12,7L17,17H7L12,7M3,3H21V5H3V3M3,7H9V9H3V7M21,7V9H15V7H21M3,11H7V13H3V11M21,11V13H17V11H21M3,15H6V17H3V15M21,15V17H18V15H21M3,19H21V21H3V19Z" /></svg>
